X: 1
T: Roddy McDonald's Fancy
N: bagpipe version
R: reel
M: 4/4
L: 1/8
S: someone at thesession.org
D: J. Wrigley, A. Henderson, J. Legge, S. Wright "Birlin' Fiddles"
D: Battlefield Band "There's A Buzz"
K: Amix
|:ecB2 cAAB | c2cB ceaf | ecB2 cAAB |  cffe f2fa :|
[|ecef a2af | ecBc ecca | fefg a2ec |  Bffe f2fa  |
|ecef a2af | ecBc ceaf | ecB2 cAAB |  cffe faec  |]
|:B2cB AAAB | c2cB ceaf | ecBc AAAB |1 cffe f2ec :|2 cffe f2fg |
[|a2ea aefa | efae faec | aeea feac |  Bffe f2fg  |
|a2fa f2fa | eAfe ceaf | ecBc AAAB |  cffe f2fa  |]
